X:1
T:Our Lord Is Coming Back Again
T:Our Lord Is Coming Back Again
T:J. R. Smith
T:J. R. Smith, 1922
T:Public Domain Courtesy of the Cyber Hymnal™
T:Public Domain Courtesy of the Cyber Hymnal™
C:J. R. Smith
Z:Public Domain
Z:Courtesy of the Cyber Hymnal™
%%score ( 1 2 ) ( 3 4 )
L:1/8
Q:1/4=95
M:4/4
K:G
V:1 treble 
V:2 treble 
V:3 bass 
V:4 bass 
V:1
 [DG]>[DG] | [GB]2 [GB]>[GB] [Gd]2 [GB]>[GB] | [Gc]>[Gc] [Gc]>[EG] [DG]2 [DG]>[DA] | %3
w: 1.~I have|read how the Lord, When a|babe in Beth- le- hem, In a|
w: 2.~I have|read how He died On the|cross of Cal- va- ry, Where He|
w: 3.~Then I|read how the Lord, When the|thorn crown pressed His brow, Asked for-|
 [GB]>[GB] [GB]>[GB] [GB]2 [G^c]>[Gc] | [Fd]6 [Gd]>[Ac] | [GB]2 [GB]>[Gc] [GB]2 [GB]>[GB] | %6
w: hum- ble man- ger cra- dle was|lain; What He|bore for a world which His|
w: shed His pre- cious blood, and was|slain; He who|preached to the poor, and Who|
w: give- ness for the e- vil in|men; How He|told His dis- ci- ples That|
 [Gc]>[Gc] [Ge]>[Ge] [Gd]2 [GB]>[Gc] | [Gd]>[Gd] [Gd]>[Ac] [GB]>[GB] [FA]>[DA] | [DG]6 || %9
w: love would not con- demn, And I|learned that He is com- ing back a-|gain.|
w: made the blind to see, Told them|He was sure- ly com- ing back a-|gain.|
w: He must leave them now, But He|prom- ised He was com- ing back a-|gain.|
"^Refrain" z2 | [DB]>[DB] [DB]>[DB] [DB]>[DB] [Ec]>[Ec] | [Dd]>[Dd] [Dd]>[Dd] [Gd]3/2 z/ z2 | %12
w: |||
w: |||
w: |||
 [Ge]>[Ge] [Ge]>[Ge] [Ge]>[Gd] [G^c]>[Gc] | [Fd]>[Fd] [Fc]>[FB] [FA]2 [Gd]>[Ac] | %14
w: ||
w: ||
w: ||
 [GB]>[GB] [GB]>[GB] [GB]2 [DB]>[DB] | [Ec]>[Ec] [Ec]>[Fd] !fermata![Ge]2 [Ge]>[Ge] | %16
w: ||
w: ||
w: ||
 [Fd]>[Fd] [Fd]>[Fc] [GB]<!fermata![GB] !fermata![FA]>[FA] | G4- [DG]2 |] %18
w: ||
w: ||
w: ||
V:2
 x2 | x8 | x8 | x8 | x8 | x8 | x8 | x8 | x6 || x2 | x8 | x8 | x8 | x8 | x8 | x8 | x8 | G>FE>D x2 |] %18
V:3
 [G,B,]>[G,B,] | [G,D]2 [G,D]>[G,D] [G,B,]2 [G,D]>[G,D] | %2
w: ~ ~|~ ~ ~ ~ ~ ~|
 [C,E]>[C,E] [C,E]>[C,C] [G,B,]2 [G,B,]>[G,C] | [G,D]>[G,D] [G,D]>[G,D] [E,E]2 [A,E]>[A,E] | %4
w: ~ ~ ~ ~ ~ ~ ~|~ ~ ~ ~ ~ ~ ~|
 (D4 C2) [E,B,]>[F,A,] | [G,D]2 [G,D]>[G,E] [G,D]2 [G,D]>[G,D] | %6
w: ~ * ~ ~|~ ~ ~ ~ ~ ~|
 [C,E]>[C,E] [C,C]>[C,C] [G,B,]2 G,>[G,A,] | [G,B,]>[G,B,] [B,,D]>[C,E] [D,D]>[D,D] [D,D]>[D,C] | %8
w: ~ ~ ~ ~ ~ ~ ~|~ ~ ~ ~ ~ ~ ~ ~|
 [G,,B,]6 || B,,>A,, | (G,>G,G,>G, [G,,G,]>)[G,,G,] [C,G,]>[C,G,] | %11
w: ~|He is|com- * * * * ing back a-|
 (G,>G,G,>B, [B,,D]>)B,, A,,>B,, | (C>CC>C [C,C]>)[D,B,] [E,A,]>[E,A,] | %13
w: * * * * * gain, And o’er|the * * * * u- ni- verse|
 (A,>A,A,>B, C2) [E,B,]>[F,A,] | [G,D]>[G,D] [G,D]>[G,E] [G,D]2 [G,,G,]>[G,,G,] | %15
w: to * * * * reign; He’s|not com- ing back to die, But|
 [C,G,]>[C,G,] [C,G,]>[C,G,] !fermata![C,C]2 [C,C]>[C,C] | %16
w: will take us home on high, Yes,|
 [D,A,]>[D,A,] [D,A,]>[D,A,] [D,D]<!fermata![D,D] !fermata![D,D]>[D,C] | %17
w: our bless- èd Lord is com- ing back|
 (B,3/2D3/4CB,/ [G,,B,]2) x/4 |] %18
w: a- * * * *|
V:4
 x2 | x8 | x8 | x8 | D,6 x2 | x8 | x6 G,3/2 x/ | x8 | x6 || x2 | G,,4- x4 | B,,4- x4 | C,4- x4 | %13
 D,6 x2 | x8 | x8 | x8 | G,,4 x2 |] %18

